Catalina-light/actions/16/standard-connector.svg

<svg width="16" height="16" viewBox="0 0 16 16" xmlns="http://www.w3.org/2000/svg">
<defs>
<style id="current-color-scheme" type="text/css">.ColorScheme-Text { color:#5c616c; } .ColorScheme-Highlight { color:#5294e2; }</style>
</defs>
<path class="ColorScheme-Text" d="m3.5 1a2.5 2.5 0 0 0-2.5 2.5 2.5 2.5 0 0 0 2.5 2.5 2.5 2.5 0 0 0 2.4453-2h1.0547v9h2.0508a2.5 2.5 0 0 0 2.4492 2 2.5 2.5 0 0 0 2.5-2.5 2.5 2.5 0 0 0-2.5-2.5 2.5 2.5 0 0 0-2.4453 2h-1.0547v-9h-2.0508a2.5 2.5 0 0 0-2.4492-2z" fill="currentColor"/>
</svg>

<svg xmlns="http://www.w3.org/2000/svg" width="16" height="16" viewBox="0 0 16 16">
 <defs>
  <style id="current-color-scheme" type="text/css">
   .ColorScheme-Text { color:#5c616c; } .ColorScheme-Highlight { color:#5294e2; }
  </style>
 </defs>
 <path style="fill:currentColor" class="ColorScheme-Text" d="M 3.5 1 A 2.5 2.5 0 0 0 1 3.5 A 2.5 2.5 0 0 0 3.5 6 A 2.5 2.5 0 0 0 5.9453125 4 L 7 4 L 7 12 L 7 13 L 8.5 13 L 9.0507812 13 A 2.5 2.5 0 0 0 11.5 15 A 2.5 2.5 0 0 0 14 12.5 A 2.5 2.5 0 0 0 11.5 10 A 2.5 2.5 0 0 0 9.0546875 12 L 8 12 L 8 3 L 7.5 3 L 5.9492188 3 A 2.5 2.5 0 0 0 3.5 1 z"/>
</svg>
